public/assets/badges/eersteFunding.svg

<svg fill="none" height="191" viewBox="0 0 191 191" width="191" xmlns="http://www.w3.org/2000/svg" xmlns:xlink="http://www.w3.org/1999/xlink"><filter id="a" color-interpolation-filters="sRGB" filterUnits="userSpaceOnUse" height="165.603" width="120.924" x="36" y="13"><feFlood flood-opacity="0" result="BackgroundImageFix"/><feColorMatrix in="SourceAlpha" type="matrix" values="0 0 0 0 0 0 0 0 0 0 0 0 0 0 0 0 0 0 127 0"/><feOffset dy="4"/><feColorMatrix type="matrix" values="0 0 0 0 0 0 0 0 0 0 0 0 0 0 0 0 0 0 0.15 0"/><feBlend in2="BackgroundImageFix" mode="normal" result="effect1_dropShadow"/><feBlend in="SourceGraphic" in2="effect1_dropShadow" mode="normal" result="shape"/></filter><filter id="b" color-interpolation-filters="sRGB" filterUnits="userSpaceOnUse" height="80.8717" width="85.0003" x="49.9219" y="39.4719"><feFlood flood-opacity="0" result="BackgroundImageFix"/><feColorMatrix in="SourceAlpha" type="matrix" values="0 0 0 0 0 0 0 0 0 0 0 0 0 0 0 0 0 0 127 0"/><feOffset dy="1"/><feColorMatrix type="matrix" values="0 0 0 0 0 0 0 0 0 0 0 0 0 0 0 0 0 0 0.15 0"/><feBlend in2="BackgroundImageFix" mode="normal" result="effect1_dropShadow"/><feBlend in="SourceGraphic" in2="effect1_dropShadow" mode="normal" result="shape"/></filter><filter id="c" color-interpolation-filters="sRGB" filterUnits="userSpaceOnUse" height="6.40644" width="4.57425" x="93.8687" y="64.1775"><feFlood flood-opacity="0" result="BackgroundImageFix"/><feColorMatrix in="SourceAlpha" type="matrix" values="0 0 0 0 0 0 0 0 0 0 0 0 0 0 0 0 0 0 127 0"/><feOffset dy=".25"/><feColorMatrix type="matrix" values="0 0 0 0 0 0 0 0 0 0 0 0 0 0 0 0 0 0 0.15 0"/><feBlend in2="BackgroundImageFix" mode="normal" result="effect1_dropShadow"/><feBlend in="SourceGraphic" in2="effect1_dropShadow" mode="normal" result="shape"/></filter><g filter="url(#a)"><path d="m36 23c0-5.5229 4.4772-10 10-10h100.924c5.523 0 10 4.4772 10 10v95.172c0 2.785-1.161 5.444-3.204 7.336l-50.118 46.43c-3.8168 3.536-9.7066 3.555-13.5455.044l-50.8056-46.469c-2.0712-1.894-3.2509-4.572-3.2509-7.379z" fill="#54bbab"/><path d="m46 16h100.924c3.866 0 7 3.134 7 7v95.172c0 1.949-.813 3.811-2.243 5.135l-50.118 46.431c-2.6717 2.475-6.7946 2.488-9.4818.03l-50.8056-46.469c-1.4498-1.326-2.2756-3.2-2.2756-5.165v-95.134c0-3.866 3.134-7 7-7z" stroke="#eee" stroke-width="6"/></g><g filter="url(#b)"><path d="m127.62 83.5221.287.5057h.582 4.853c.318 0 .58.2639.58.579v7.8947c0 3.1878-2.171 5.8652-5.122 6.6522l-.438.117-.201.4071c-2.426 4.9222-7.171 9.1452-13.406 11.9402l-.591.265v.647 5.235c0 .315-.263.579-.581.579h-6.322c-.318 0-.581-.264-.581-.579v-2.321-1.198l-1.178.214c-2.598.471-5.32.726-8.1205.726-2.8004 0-5.5227-.255-8.12-.726l-1.1785-.214v1.198 2.321c0 .315-.2625.579-.5806.579h-6.3227c-.3181 0-.5806-.264-.5806-.579v-5.235-.647l-.5909-.265c-9.2788-4.16-15.2157-11.431-15.2157-19.5112 0-6.2421 3.529-11.9881 9.4213-16.2123 5.8904-4.223 14.0785-6.8667 23.1677-6.8667 8.2235 0 15.7115 2.1669 21.4195 5.7151l.702.4365.561-.6077c.952-1.0315 2.465-2.3466 4.347-2.9026-.694 1.3581-1.602 3.2847-2.053 4.8725l-.173.611.479.4167c2.057 1.7887 3.729 3.7947 4.956 5.9528z" fill="#e62336" stroke="#eee" stroke-width="2"/><path d="m63.9219 94.3437c-2.8333-.1666-8.1-1.6-6.5-6 .3333-.8333 1.751-3.0494 3.5-2 2.5 1.5 0 4-2 5s-4 1-8-2" stroke="#eee" stroke-linecap="round" stroke-width="2"/><path d="m118.718 85.3966c1.091 0 1.976-.8837 1.976-1.9737s-.885-1.9737-1.976-1.9737-1.976.8837-1.976 1.9737.885 1.9737 1.976 1.9737z" fill="#eee"/><path d="m106.826 75.2914c-6.196-3.0711-14.0681-3-20.3196 0-1.3752.6631-.1739 2.7 1.1934 2.0447.1264-.0632.2529-.1184.3794-.1737-.2925.1263.2608-.1026.3477-.1342.2213-.0868.4426-.1658.6639-.2447 1.3435-.4658 2.7345-.8211 4.1334-1.0658 4.1888-.7263 8.5668-.2842 12.3998 1.6184 1.368.679 2.569-1.3658 1.202-2.0447z" fill="#eee"/><path d="m105.681 69.228c0 1.7842-.521 3.4421-1.414 4.8395-.293.4579-.854.6632-1.375.4974-3.2092-1.0105-5.9042-1.0105-5.9042-1.0105s-3.4301 0-6.5123 1.3578c-.4268.1895-.9247.0395-1.2013-.3394-1.1065-1.5-1.7625-3.3553-1.7625-5.3684 0-5.1395 4.2757-9.2764 9.4603-9.0711 4.805.1974 8.717 4.2868 8.709 9.0947z" fill="#ffb400" stroke="#fcee21" stroke-miterlimit="10" stroke-width="2"/><g filter="url(#c)"><path d="m97.3213 66.4451c-1.0532 0-2.1144 0-3.1676 0-.3801 0-.3801.6307 0 .6307h3.1676c.3801 0 .388-.6307 0-.6307-1.0532 0-2.1144 0-3.1676 0-.3801 0-.3801.6307 0 .6307h3.1676c.3801 0 .388-.6307 0-.6307z" fill="#fcee21"/><path d="m97.3213 67.4355c-1.0532 0-2.1144 0-3.1676 0-.3801 0-.3801.6307 0 .6307h3.1676c.3801 0 .388-.6307 0-.6307-1.0532 0-2.1144 0-3.1676 0-.3801 0-.3801.6307 0 .6307h3.1676c.3801 0 .388-.6307 0-.6307z" fill="#fcee21"/><path d="m97.9428 69.7461c-.377.101-.7719.1151-1.1551.0413-.3832-.0739-.7447-.2338-1.0571-.4676s-.5677-.5356-.7466-.8824c-.1789-.3469-.2766-.7298-.286-1.1199-.0093-.3902.07-.7773.232-1.1323.1621-.3551.4026-.6687.7035-.9172.3008-.2486.6542-.4255 1.0334-.5177.3793-.0921.7745-.0969 1.1558-.0141" stroke="#fcee21" stroke-linecap="round"/></g><g stroke="#eee" stroke-linecap="round" stroke-width="2"><path d="m86.3761 44.9051.1161 13.0236"/><path d="m95.4698 40.4808.1161 13.0236"/><path d="m104.689 44.9051.116 13.0236"/></g></g></svg>

<svg width="191" height="191" viewBox="0 0 191 191" fill="none" xmlns="http://www.w3.org/2000/svg">
<g filter="url(#filter0_d)">
<path d="M36 23C36 17.4771 40.4772 13 46 13H146.924C152.447 13 156.924 17.4772 156.924 23V118.172C156.924 120.957 155.763 123.616 153.72 125.508L103.602 171.938C99.7852 175.474 93.8954 175.493 90.0565 171.982L39.2509 125.513C37.1797 123.619 36 120.941 36 118.134V23Z" fill="#54BBAB"/>
<path d="M46 16H146.924C150.79 16 153.924 19.134 153.924 23V118.172C153.924 120.121 153.111 121.983 151.681 123.307L101.563 169.738C98.8913 172.213 94.7684 172.226 92.0812 169.768L41.2756 123.299C39.8258 121.973 39 120.099 39 118.134V23C39 19.134 42.134 16 46 16Z" stroke="#EEEEEE" stroke-width="6"/>
</g>
<g filter="url(#filter1_d)">
<path d="M127.62 83.5221L127.907 84.0278H128.489H133.342C133.66 84.0278 133.922 84.2917 133.922 84.6068V92.5015C133.922 95.6893 131.751 98.3667 128.8 99.1537L128.362 99.2707L128.161 99.6778C125.735 104.6 120.99 108.823 114.755 111.618L114.164 111.883V112.53V117.765C114.164 118.08 113.901 118.344 113.583 118.344H107.261C106.943 118.344 106.68 118.08 106.68 117.765V115.444V114.246L105.502 114.46C102.904 114.931 100.182 115.186 97.3815 115.186C94.5811 115.186 91.8588 114.931 89.2615 114.46L88.083 114.246V115.444V117.765C88.083 118.08 87.8205 118.344 87.5024 118.344H81.1797C80.8616 118.344 80.5991 118.08 80.5991 117.765V112.53V111.883L80.0082 111.618C70.7294 107.458 64.7925 100.187 64.7925 92.1068C64.7925 85.8647 68.3215 80.1187 74.2138 75.8945C80.1042 71.6715 88.2923 69.0278 97.3815 69.0278C105.605 69.0278 113.093 71.1947 118.801 74.7429L119.503 75.1794L120.064 74.5717C121.016 73.5402 122.529 72.2251 124.411 71.6691C123.717 73.0272 122.809 74.9538 122.358 76.5416L122.185 77.1526L122.664 77.5693C124.721 79.358 126.393 81.364 127.62 83.5221Z" fill="#E62336" stroke="#EEEEEE" stroke-width="2"/>
<path d="M63.9219 94.3437C61.0886 94.1771 55.8219 92.7437 57.4219 88.3437C57.7552 87.5104 59.1729 85.2943 60.9219 86.3437C63.4219 87.8437 60.9219 90.3437 58.9219 91.3437C56.9219 92.3437 54.9219 92.3437 50.9219 89.3437" stroke="#EEEEEE" stroke-width="2" stroke-linecap="round"/>
<path d="M118.718 85.3966C119.809 85.3966 120.694 84.5129 120.694 83.4229C120.694 82.3329 119.809 81.4492 118.718 81.4492C117.627 81.4492 116.742 82.3329 116.742 83.4229C116.742 84.5129 117.627 85.3966 118.718 85.3966Z" fill="#EEEEEE"/>
<path d="M106.826 75.2914C100.63 72.2203 92.7579 72.2914 86.5064 75.2914C85.1312 75.9545 86.3325 77.9914 87.6998 77.3361C87.8262 77.2729 87.9527 77.2177 88.0792 77.1624C87.7867 77.2887 88.34 77.0598 88.4269 77.0282C88.6482 76.9414 88.8695 76.8624 89.0908 76.7835C90.4343 76.3177 91.8253 75.9624 93.2242 75.7177C97.413 74.9914 101.791 75.4335 105.624 77.3361C106.992 78.0151 108.193 75.9703 106.826 75.2914Z" fill="#EEEEEE"/>
<path d="M105.681 69.228C105.681 71.0122 105.16 72.6701 104.267 74.0675C103.974 74.5254 103.413 74.7307 102.892 74.5649C99.6828 73.5544 96.9878 73.5544 96.9878 73.5544C96.9878 73.5544 93.5577 73.5544 90.4755 74.9122C90.0487 75.1017 89.5508 74.9517 89.2742 74.5728C88.1677 73.0728 87.5117 71.2175 87.5117 69.2044C87.5117 64.0649 91.7874 59.928 96.972 60.1333C101.777 60.3307 105.689 64.4201 105.681 69.228Z" fill="#FFB400" stroke="#FCEE21" stroke-width="2" stroke-miterlimit="10"/>
<g filter="url(#filter2_d)">
<path d="M97.3213 66.4451C96.2681 66.4451 95.2069 66.4451 94.1537 66.4451C93.7736 66.4451 93.7736 67.0758 94.1537 67.0758C95.2069 67.0758 96.2681 67.0758 97.3213 67.0758C97.7014 67.0758 97.7093 66.4451 97.3213 66.4451C96.2681 66.4451 95.2069 66.4451 94.1537 66.4451C93.7736 66.4451 93.7736 67.0758 94.1537 67.0758C95.2069 67.0758 96.2681 67.0758 97.3213 67.0758C97.7014 67.0758 97.7093 66.4451 97.3213 66.4451Z" fill="#FCEE21"/>
<path d="M97.3213 67.4355C96.2681 67.4355 95.2069 67.4355 94.1537 67.4355C93.7736 67.4355 93.7736 68.0662 94.1537 68.0662C95.2069 68.0662 96.2681 68.0662 97.3213 68.0662C97.7014 68.0662 97.7093 67.4355 97.3213 67.4355C96.2681 67.4355 95.2069 67.4355 94.1537 67.4355C93.7736 67.4355 93.7736 68.0662 94.1537 68.0662C95.2069 68.0662 96.2681 68.0662 97.3213 68.0662C97.7014 68.0662 97.7093 67.4355 97.3213 67.4355Z" fill="#FCEE21"/>
<path d="M97.9428 69.7461C97.5658 69.8471 97.1709 69.8612 96.7877 69.7874C96.4045 69.7135 96.043 69.5536 95.7306 69.3198C95.4182 69.086 95.1629 68.7842 94.984 68.4374C94.8051 68.0905 94.7074 67.7076 94.698 67.3175C94.6887 66.9273 94.768 66.5402 94.93 66.1852C95.0921 65.8301 95.3326 65.5165 95.6335 65.268C95.9343 65.0194 96.2877 64.8425 96.6669 64.7503C97.0462 64.6582 97.4414 64.6534 97.8227 64.7362" stroke="#FCEE21" stroke-linecap="round"/>
</g>
<line x1="86.3761" y1="44.9051" x2="86.4922" y2="57.9287" stroke="#EEEEEE" stroke-width="2" stroke-linecap="round"/>
<line x1="95.4698" y1="40.4808" x2="95.5859" y2="53.5044" stroke="#EEEEEE" stroke-width="2" stroke-linecap="round"/>
<line x1="104.689" y1="44.9051" x2="104.805" y2="57.9287" stroke="#EEEEEE" stroke-width="2" stroke-linecap="round"/>
</g>
<defs>
<filter id="filter0_d" x="36" y="13" width="120.924" height="165.603" filterUnits="userSpaceOnUse" color-interpolation-filters="sRGB">
<feFlood flood-opacity="0" result="BackgroundImageFix"/>
<feColorMatrix in="SourceAlpha" type="matrix" values="0 0 0 0 0 0 0 0 0 0 0 0 0 0 0 0 0 0 127 0"/>
<feOffset dy="4"/>
<feColorMatrix type="matrix" values="0 0 0 0 0 0 0 0 0 0 0 0 0 0 0 0 0 0 0.15 0"/>
<feBlend mode="normal" in2="BackgroundImageFix" result="effect1_dropShadow"/>
<feBlend mode="normal" in="SourceGraphic" in2="effect1_dropShadow" result="shape"/>
</filter>
<filter id="filter1_d" x="49.9219" y="39.4719" width="85.0003" height="80.8717" filterUnits="userSpaceOnUse" color-interpolation-filters="sRGB">
<feFlood flood-opacity="0" result="BackgroundImageFix"/>
<feColorMatrix in="SourceAlpha" type="matrix" values="0 0 0 0 0 0 0 0 0 0 0 0 0 0 0 0 0 0 127 0"/>
<feOffset dy="1"/>
<feColorMatrix type="matrix" values="0 0 0 0 0 0 0 0 0 0 0 0 0 0 0 0 0 0 0.15 0"/>
<feBlend mode="normal" in2="BackgroundImageFix" result="effect1_dropShadow"/>
<feBlend mode="normal" in="SourceGraphic" in2="effect1_dropShadow" result="shape"/>
</filter>
<filter id="filter2_d" x="93.8687" y="64.1775" width="4.57425" height="6.40644" filterUnits="userSpaceOnUse" color-interpolation-filters="sRGB">
<feFlood flood-opacity="0" result="BackgroundImageFix"/>
<feColorMatrix in="SourceAlpha" type="matrix" values="0 0 0 0 0 0 0 0 0 0 0 0 0 0 0 0 0 0 127 0"/>
<feOffset dy="0.25"/>
<feColorMatrix type="matrix" values="0 0 0 0 0 0 0 0 0 0 0 0 0 0 0 0 0 0 0.15 0"/>
<feBlend mode="normal" in2="BackgroundImageFix" result="effect1_dropShadow"/>
<feBlend mode="normal" in="SourceGraphic" in2="effect1_dropShadow" result="shape"/>
</filter>
</defs>
</svg>
